Papirus/64x64/apps/baldis-basics.svg

<svg width="64" height="64" version="1.1" xmlns="http://www.w3.org/2000/svg">
 <path d="m41 5s-2.208752-0.013788-4.447266 1.1054688c-0.526355 0.2631777-0.977813 0.5247898-1.396484 0.7832031-1.015245-0.3149148-2.070493-0.4882813-3.15625-0.4882813-8.4 0-15 8.7996094-15 18.599609 0 6.730361 11 15.000391 11 16.400391 0 0.327656-0.0022 0.672953 0 1.02539-3.025574-0.869191-5.161504-2.425781-8.599609-2.425781-2.98728 0-4.316911 1.59312-4.914063 3.080078-0.662655-1.391468-1.919209-2.080078-3.486328-2.080078-2.3268 0-4 1.664033-4 4.599609v14c0 0.7756 0.6247906 1.400391 1.4003906 1.400391h5.1992184c0.345813 0 0.655813-0.129532 0.898438-0.335938 0.243827 0.206585 0.556278 0.335938 0.902344 0.335938h33.199218c0.345071 0 0.657762-0.128461 0.902344-0.333984 0.243553 0.205337 0.553616 0.333984 0.898438 0.333984h5.199218c0.7756 0 1.391158-0.624846 1.400391-1.400391v-14c0-3.120606-1.6732-4.599609-4-4.599609-1.552956 0-2.801219 0.755291-3.46875 2.121094-0.588917-1.498613-1.916637-3.121094-4.931641-3.121094-3.438105 0-5.574035 1.55659-8.599609 2.425781 0.0022-0.352437 0-0.697734 0-1.02539 0-1.4 11-9.67003 11-16.400391 0-6.466098-3.918529-13.979751-9.550781-17.105469 1.760958-0.879932 3.550781-0.8945312 3.550781-0.8945312a1.0001 1.0001 0 1 0 0-2z" style="opacity:.2"/>
 <path d="m11 40c-2.3268 0-4 1.664033-4 4.599609v5.400391 8.599609c0 0.7756 0.6247906 1.400391 1.4003906 1.400391h2.5996094 2.599609c0.7756 0 1.391158-0.624846 1.400391-1.400391v-8.599609-5.400391c0-3.120606-1.6732-4.599609-4-4.599609zm42 0c-2.3268 0-4 1.664033-4 4.599609v5.400391 8.599609c0 0.7756 0.624791 1.400391 1.400391 1.400391h2.599609 2.599609c0.7756 0 1.391158-0.624846 1.400391-1.400391v-8.599609-5.400391c0-3.120606-1.6732-4.599609-4-4.599609z" style="fill:#14d014"/>
 <path d="m11 40c-2.3268 0-4 1.664033-4 4.599609v1c0-2.935576 1.6732-4.599609 4-4.599609s4 1.479003 4 4.599609v-1c0-3.120606-1.6732-4.599609-4-4.599609zm42 0c-2.3268 0-4 1.664033-4 4.599609v1c0-2.935576 1.6732-4.599609 4-4.599609s4 1.479003 4 4.599609v-1c0-3.120606-1.6732-4.599609-4-4.599609z" style="fill:#ffffff;opacity:.1"/>
 <path d="m32 5.4c-8.4 0-15 8.8-15 18.6 0 6.730361 11 15 11 16.4 0 2.72111-0.2 6.6 4 6.6s4-3.87889 4-6.6c0-1.4 11-9.669639 11-16.4 0-8.4-6.6-18.6-15-18.6z" style="fill:#d2b575"/>
 <path d="m19.4 39c-5.6 0-5.4 5.6-5.4 5.6v14c0 0.7756 0.6244 1.4 1.4 1.4h33.2c0.7756 0 1.407914-0.62444 1.4-1.4v-14s0.2-5.6-5.4-5.6c-4.759084 0-7 3-12.6 3s-7.840916-3-12.6-3z" style="fill:#37e137"/>
 <path d="m36.226562 6.2832031c-1.397567 0.7339643-2.387094 1.4639799-3.02539 2.0390625-0.689688 0.621385-1.035156 1.126953-1.035156 1.1269532a1.0001 1.0001 0 1 0 1.667968 1.1015622s0.147777-0.240076 0.705078-0.7421872c0.557305-0.5021109 1.481374-1.2006478 2.908204-1.9140626 0.330382-0.1651909 0.658054-0.2925194 0.978515-0.4023437-0.705719-0.4720479-1.435619-0.8874107-2.199219-1.2089844zm-12.226562 26.716797s5.2 5 8 5 8-5 8-5-3.8 2-8 2-8-2-8-2z" style="opacity:.1"/>
 <path d="m41 4s-2.208752-0.013788-4.447266 1.1054688c-1.585203 0.7926017-2.661874 1.5954118-3.351562 2.2167968s-1.035156 1.1269532-1.035156 1.1269532a1.0001 1.0001 0 1 0 1.667968 1.1015624s0.147775-0.2400766 0.705078-0.7421874c0.557304-0.5021109 1.481374-1.2006479 2.908204-1.9140626 1.761486-0.880743 3.552734-0.8945312 3.552734-0.8945312a1.0001 1.0001 0 1 0 0-2z" style="fill:#684322"/>
 <path d="m25 15a4 4 0 0 0-4 4 4 4 0 0 0 4 4 4 4 0 0 0 4-4 4 4 0 0 0-4-4zm14 0a4 4 0 0 0-4 4 4 4 0 0 0 4 4 4 4 0 0 0 4-4 4 4 0 0 0-4-4zm-7 4s-3 7.000781-3 9.800781c0 1.319933 0.2 3.199219 3 3.199219s3-1.879286 3-3.199219c0-2.8-3-9.800781-3-9.800781z" style="opacity:.2"/>
 <path d="m32 18s3 7 3 9.8c0 1.319933-0.2 3.2-3 3.2s-3-1.880067-3-3.2c0-2.8 3-9.8 3-9.8z" style="fill:#e7cf9c"/>
 <path d="m25 14a4 4 0 0 0-4 4 4 4 0 0 0 4 4 4 4 0 0 0 4-4 4 4 0 0 0-4-4zm14 0a4 4 0 0 0-4 4 4 4 0 0 0 4 4 4 4 0 0 0 4-4 4 4 0 0 0-4-4z" style="fill-opacity:.98974359;fill:#ffffff"/>
 <path d="m32 34c-4.2 0-8-2-8-2s5.2 5 8 5 8-5 8-5-3.8 2-8 2z" style="fill:#e43a31"/>
 <circle cx="25" cy="18" r="2" style="fill-opacity:.98974358;fill:#323232"/>
 <circle cx="39" cy="18" r="2" style="fill-opacity:.98974358;fill:#323232"/>
 <path d="m19.400391 39c-5.6 0-5.400391 5.599609-5.400391 5.599609v1s-0.199609-5.599609 5.400391-5.599609c4.759084 0 6.999609 3 12.599609 3s7.840525-3 12.599609-3c5.6 0 5.400391 5.599609 5.400391 5.599609v-1s0.199609-5.599609-5.400391-5.599609c-4.759084 0-6.999609 3-12.599609 3s-7.840525-3-12.599609-3z" style="fill:#ffffff;opacity:.2"/>
</svg>

<?xml version="1.0" encoding="UTF-8" standalone="no"?>
<svg
   id="_图层_1"
   version="1.1"
   viewBox="0 0 64 64" width="64" height="64"
   sodipodi:docname="baldis-basics.svg"
   xml:space="preserve"
   inkscape:version="1.4 (e7c3feb100, 2024-10-09)"
   xmlns:inkscape="http://www.inkscape.org/namespaces/inkscape"
   xmlns:sodipodi="http://sodipodi.sourceforge.net/DTD/sodipodi-0.dtd"
   xmlns="http://www.w3.org/2000/svg"
   xmlns:svg="http://www.w3.org/2000/svg"><sodipodi:namedview
     id="namedview26"
     pagecolor="#505050"
     bordercolor="#eeeeee"
     borderopacity="1"
     inkscape:showpageshadow="0"
     inkscape:pageopacity="0"
     inkscape:pagecheckerboard="0"
     inkscape:deskcolor="#505050"
     inkscape:zoom="10.6875"
     inkscape:cx="32"
     inkscape:cy="19.368421"
     inkscape:window-width="1920"
     inkscape:window-height="939"
     inkscape:window-x="0"
     inkscape:window-y="34"
     inkscape:window-maximized="1"
     inkscape:current-layer="_图层_1" /><!-- Generator: Adobe Illustrator 29.0.1, SVG Export Plug-In . SVG Version: 2.1.0 Build 192)  --><defs
     id="defs6"><inkscape:path-effect
       effect="fillet_chamfer"
       id="path-effect26"
       is_visible="true"
       lpeversion="1"
       nodesatellites_param="F,0,0,1,0,0,0,1 @ F,0,0,1,0,0,0,1 @ F,0,1,1,0,0,0,1 @ F,0,0,1,0,0,0,1 | F,0,0,1,0,0,0,1 @ F,0,0,1,0,0,0,1 @ F,0,0,1,0,0,0,1 @ F,0,0,1,0,0,0,1"
       radius="0"
       unit="px"
       method="auto"
       mode="F"
       chamfer_steps="1"
       flexible="false"
       use_knot_distance="true"
       apply_no_radius="true"
       apply_with_radius="true"
       only_selected="false"
       hide_knots="false" /><style
       id="style1">
      .st0 {
        fill-opacity: .5;
      }

      .st0, .st1, .st2, .st3, .st4, .st5, .st6, .st7 {
        fill: #fff;
      }

      .st8 {
        fill: #133c9a;
      }

      .st2, .st9 {
        display: none;
      }

      .st3 {
        fill-opacity: .2;
      }

      .st4 {
        fill-opacity: .9;
      }

      .st10 {
        fill: #3370ff;
      }

      .st11 {
        fill: url(#_未命名的渐变_3);
      }

      .st12 {
        fill: url(#_未命名的渐变);
      }

      .st5 {
        fill-opacity: .3;
      }

      .st6 {
        fill-opacity: 0;
      }

      .st7 {
        fill-opacity: .7;
      }

      .st13 {
        fill: #00d6b9;
      }

      .st14 {
        fill: url(#_未命名的渐变_2);
      }
    </style><radialGradient
       id="_未命名的渐变"
       data-name="未命名的渐变"
       cx="123.9"
       cy="-40.2"
       fx="123.9"
       fy="-40.2"
       r="59.4"
       gradientTransform="translate(-26.8 25.5) scale(.6 -.7)"
       gradientUnits="userSpaceOnUse"><stop
         offset="0"
         stop-color="#db202e"
         id="stop1" /><stop
         offset="1"
         stop-color="#e01b24"
         id="stop2" /></radialGradient><radialGradient
       id="_未命名的渐变_2"
       data-name="未命名的渐变 2"
       cx="67.6"
       cy="26.8"
       fx="67.6"
       fy="26.8"
       r="105.2"
       gradientTransform="translate(-26.6 25.3) scale(.6 -.7)"
       gradientUnits="userSpaceOnUse"><stop
         offset="0"
         stop-color="#ffb648"
         id="stop3" /><stop
         offset="1"
         stop-color="#ff7800"
         stop-opacity="0"
         id="stop4" /></radialGradient><radialGradient
       id="_未命名的渐变_3"
       data-name="未命名的渐变 3"
       cx="61.7"
       cy="18.6"
       fx="61.7"
       fy="18.6"
       r="68"
       gradientTransform="translate(-26.8 25.8) scale(.6 -.7)"
       gradientUnits="userSpaceOnUse"><stop
         offset="0"
         stop-color="#c64600"
         id="stop5" /><stop
         offset="1"
         stop-color="#a51d2d"
         id="stop6" /></radialGradient></defs><path
     class="st1"
     d="M47.5,64.1H13.8c-7.6,0-13.8-6.3-13.8-13.8V13.7C0,6.2,6.2,0,13.7,0h36.6c7.5,0,13.7,6.2,13.7,13.7v36.6c0,7.5-6.2,13.7-13.7,13.7h-2.9.1Z"
     id="path6"
     style="fill:#f9f9f9;fill-opacity:1" /><g
     id="g26"
     transform="matrix(0.8502924,0,0,0.77346916,4.0421052,6.5231094)"><path
       d="M 41,5 C 41,5 38.791248,4.986212 36.552734,6.1054688 36.026379,6.3686465 35.574921,6.6302586 35.15625,6.8886719 34.141005,6.5737571 33.085757,6.4003906 32,6.4003906 23.6,6.4003906 17,15.2 17,25 c 0,6.730361 11,15.000391 11,16.400391 0,0.327656 -0.0022,0.672953 0,1.02539 C 24.974426,41.55659 22.838496,40 19.400391,40 16.413111,40 15.08348,41.59312 14.486328,43.080078 13.823673,41.68861 12.567119,41 11,41 8.6732,41 7,42.664033 7,45.599609 v 14 C 7,60.375209 7.6247906,61 8.4003906,61 h 5.1992184 c 0.345813,0 0.655813,-0.129532 0.898438,-0.335938 C 14.741874,60.870647 15.054325,61 15.400391,61 h 33.199218 c 0.345071,0 0.657762,-0.128461 0.902344,-0.333984 C 49.745506,60.871353 50.055569,61 50.400391,61 h 5.199218 C 56.375209,61 56.990767,60.375154 57,59.599609 v -14 C 57,42.479003 55.3268,41 53,41 51.447044,41 50.198781,41.755291 49.53125,43.121094 48.942333,41.622481 47.614613,40 44.599609,40 41.161504,40 39.025574,41.55659 36,42.425781 36.0022,42.073344 36,41.728047 36,41.400391 36,40.000391 47,31.730361 47,25 47,18.533902 43.081471,11.020249 37.449219,7.8945306 39.210177,7.0145986 41,6.9999994 41,6.9999994 A 1.0001,1.0001 0 1 0 41,5 Z"
       style="opacity:0.2"
       id="path1" /><path
       d="M 11,40 C 8.6732,40 7,41.664033 7,44.599609 V 50 58.599609 C 7,59.375209 7.6247906,60 8.4003906,60 H 11 13.599609 C 14.375209,60 14.990767,59.375154 15,58.599609 V 50 44.599609 C 15,41.479003 13.3268,40 11,40 Z m 42,0 c -2.3268,0 -4,1.664033 -4,4.599609 V 50 58.599609 C 49,59.375209 49.624791,60 50.400391,60 H 53 55.599609 C 56.375209,60 56.990767,59.375154 57,58.599609 V 50 44.599609 C 57,41.479003 55.3268,40 53,40 Z"
       style="fill:#14d014"
       id="path2" /><path
       d="m 11,40 c -2.3268,0 -4,1.664033 -4,4.599609 v 1 C 7,42.664033 8.6732,41 11,41 c 2.3268,0 4,1.479003 4,4.599609 v -1 C 15,41.479003 13.3268,40 11,40 Z m 42,0 c -2.3268,0 -4,1.664033 -4,4.599609 v 1 C 49,42.664033 50.6732,41 53,41 c 2.3268,0 4,1.479003 4,4.599609 v -1 C 57,41.479003 55.3268,40 53,40 Z"
       style="opacity:0.1;fill:#ffffff"
       id="path3" /><path
       d="m 32,5.4 c -8.4,0 -15,8.8 -15,18.6 0,6.730361 11,15 11,16.4 0,2.72111 -0.2,6.6 4,6.6 4.2,0 4,-3.87889 4,-6.6 C 36,39 47,30.730361 47,24 47,15.6 40.4,5.4 32,5.4 Z"
       style="fill:#d2b575"
       id="path4" /><path
       d="M 19.4,39 C 13.8,39 14,44.6 14,44.6 v 14 c 0,0.7756 0.6244,1.4 1.4,1.4 h 33.2 c 0.7756,0 1.407914,-0.62444 1.4,-1.4 v -14 c 0,0 0.2,-5.6 -5.4,-5.6 -4.759084,0 -7,3 -12.6,3 -5.6,0 -7.840916,-3 -12.6,-3 z"
       style="fill:#37e137"
       id="path5" /><path
       d="m 36.226562,6.2832031 c -1.397567,0.7339643 -2.387094,1.4639799 -3.02539,2.0390625 -0.689688,0.621385 -1.035156,1.126953 -1.035156,1.1269532 a 1.0001,1.0001 0 1 0 1.667968,1.1015622 c 0,0 0.147777,-0.240076 0.705078,-0.7421872 C 35.096367,9.3064829 36.020436,8.607946 37.447266,7.8945312 37.777648,7.7293403 38.10532,7.6020118 38.425781,7.4921875 37.720062,7.0201396 36.990162,6.6047768 36.226562,6.2832031 Z M 24,33 c 0,0 5.2,5 8,5 2.8,0 8,-5 8,-5 0,0 -3.8,2 -8,2 -4.2,0 -8,-2 -8,-2 z"
       style="opacity:0.1"
       id="path6-9" /><path
       d="m 41,4 c 0,0 -2.208752,-0.013788 -4.447266,1.1054688 -1.585203,0.7926017 -2.661874,1.5954118 -3.351562,2.2167968 -0.689688,0.621385 -1.035156,1.1269532 -1.035156,1.1269532 a 1.0001,1.0001 0 1 0 1.667968,1.1015624 c 0,0 0.147775,-0.2400766 0.705078,-0.7421874 C 35.096366,8.3064829 36.020436,7.6079459 37.447266,6.8945312 39.208752,6.0137882 41,6 41,6 a 1.0001,1.0001 0 1 0 0,-2 z"
       style="fill:#684322"
       id="path7" /><path
       d="m 25,15 a 4,4 0 0 0 -4,4 4,4 0 0 0 4,4 4,4 0 0 0 4,-4 4,4 0 0 0 -4,-4 z m 14,0 a 4,4 0 0 0 -4,4 4,4 0 0 0 4,4 4,4 0 0 0 4,-4 4,4 0 0 0 -4,-4 z m -7,4 c 0,0 -3,7.000781 -3,9.800781 C 29,30.120714 29.2,32 32,32 34.8,32 35,30.120714 35,28.800781 35,26.000781 32,19 32,19 Z"
       style="opacity:0.2"
       id="path8" /><path
       d="m 32,18 c 0,0 3,7 3,9.8 0,1.319933 -0.2,3.2 -3,3.2 -2.8,0 -3,-1.880067 -3,-3.2 C 29,25 32,18 32,18 Z"
       style="fill:#e7cf9c"
       id="path9" /><path
       d="m 25,14 a 4,4 0 0 0 -4,4 4,4 0 0 0 4,4 4,4 0 0 0 4,-4 4,4 0 0 0 -4,-4 z m 14,0 a 4,4 0 0 0 -4,4 4,4 0 0 0 4,4 4,4 0 0 0 4,-4 4,4 0 0 0 -4,-4 z"
       style="fill:#ffffff;fill-opacity:0.989744"
       id="path10" /><path
       d="m 32,34 c -4.2,0 -8,-2 -8,-2 0,0 5.2,5 8,5 2.8,0 8,-5 8,-5 0,0 -3.8,2 -8,2 z"
       style="fill:#e43a31"
       id="path11" /><circle
       cx="25"
       cy="18"
       r="2"
       style="fill:#323232;fill-opacity:0.989744"
       id="circle11" /><circle
       cx="39"
       cy="18"
       r="2"
       style="fill:#323232;fill-opacity:0.989744"
       id="circle12" /><path
       d="M 19.400391,39 C 13.800391,39 14,44.599609 14,44.599609 v 1 C 14,45.599609 13.800391,40 19.400391,40 24.159475,40 26.4,43 32,43 37.6,43 39.840525,40 44.599609,40 50.199609,40 50,45.599609 50,45.599609 v -1 C 50,44.599609 50.199609,39 44.599609,39 39.840525,39 37.6,42 32,42 26.4,42 24.159475,39 19.400391,39 Z"
       style="opacity:0.2;fill:#ffffff"
       id="path12" /></g></svg>
